X:1
T:Victorious
T:Victorious
T:William James Kirkpatrick
T:Priscilla Jane Owens, 1881
T:Public Domain Courtesy of the Cyber Hymnal™
C:William James Kirkpatrick
Z:Public Domain
Z:Courtesy of the Cyber Hymnal™
%%score ( 1 2 ) ( 3 4 )
L:1/8
M:4/4
K:Bb
V:1 treble 
V:2 treble 
V:3 bass 
V:4 bass 
V:1
 F2 | [DB]3 [DF] [DF]2 F2 | [FB]3 [DF] [DF]4 | [FB]2 [FB][FB] [Fc]2 [Fc]2 | %4
w: 1.~Vic-|to- ri- ous! Vic-|to- ri- ous!|Christ has a- ris- en|
w: 2.~Vic-|to- ri- ous! Vic-|to- ri- ous!|Christ has a- ris- en|
w: 3.~Vic-|to- ri- ous! Vic-|to- ri- ous!|Christ has a- ris- en|
 [Fd]3 [Fc] !fermata![Fc]4 |"^Semichorus" [Fd]3 [Fd] [Bd]2 c2 | [GB]2 [^FA]2 G4 | %7
w: glo- ri- ous;|Where the fun- eral|knell was tolled|
w: glo- ri- ous;|Where the hea- vy|tomb was sealed|
w: glo- ri- ous;|On His brow the|con- queror’s wreath,|
 [Ge]3 [Ge] [Ge]2 [Gd]2 | [Gc]2 [GB]2 [FA]4 | [DB]3 [DB] [EB]2 [=EB]2 | %10
w: Be the hymn of|tri- umph rolled,|Let the palm’s green|
w: Gates of Par- a-|dise re- vealed,|Where the mourn- ers|
w: In His hand the|keys of death,|He shall bur- ied|
 [FB]2 (cd) !fermata![Ge]2 [EG][EG] |"^riten." [DF]2 [DF]2 [CF]2 [EF]2 | [DF]6 z2 || %13
w: branch- es * wave O’er the|slum- ber of the|grave;|
w: wept a- * round, Faith looks|up, with glo- ry|crowned.|
w: hopes re- * store, He shall|live for- ev- er-|more.|
"^Refrain" B2"^Full Chorus" F2 D2 F2 | B3 B B4 | [Fd]2 [Fc]2 [FB]2 [Fc]2 | %16
w: From its gloom vic-|to- ri- ous,|Christ has ris- en|
w: O’er the grave, vic-|to- ri- ous,|Christ has ris- en|
w: O- ver death vic-|to- ri- ous,|Christ has ris- en|
 !>![Fd]3 [Fc] !fermata![Fc]4 | f6 [Af]2 | f6 [Fd]2 | [Ac]7 [FB] | [FB]6 z2 |] %21
w: glo- ri- ous,|Christ has|ris- en|glo- ri-|ous.|
w: glo- ri- ous,|Christ has|ris- en|glo- ri-|ous.|
w: glo- ri- ous,|Christ has|ris- en|glo- ri-|ous.|
V:2
 F2 | x6 F2 | x8 | x8 | x8 | x8 | x4 G4 | x8 | x8 | x8 | x2 _A2 x4 | x8 | x8 || B2 F2 D2 F2 | %14
 B3 B B4 | x8 | x8 | (B2 A2 B2) x2 | (B2 A2 B2) x2 | x8 | x8 |] %21
V:3
 F,2 | [B,,F,]3 [B,,B,] [B,,B,]2 F,2 | [B,,D]3 [B,,B,] [B,,B,]4 | %3
w: ~|~ ~ ~ ~|~ ~ ~|
 [D,B,]2 [D,B,][D,B,] [F,A,]2 [F,A,]2 | B,3 [F,A,] !fermata![F,A,]4 | %5
w: ~ ~ ~ ~ ~|~ ~ ~|
 [B,,B,]3 [B,,D] [B,,F]2 [C,E]2 | [D,D]2 [D,C]2 [E,B,]4 | [C,C]3 [C,C] [C,C]2 [D,^B,]2 | %8
w: ~ ~ ~ ~|~ ~ ~|~ ~ ~ ~|
 [E,C]2 [=E,C]2 [F,C]4 | [G,B,]3 [G,B,] [_G,B,]2 [G,^C]2 | %10
w: ~ ~ ~|~ ~ ~ ~|
 [F,D]2 [F,B,]2 !fermata![E,B,]2 [E,B,][E,B,] | [F,B,]2 [F,B,]2 [F,,F,A,]2 [F,,F,C]2 | %12
w: ~ ~ ~ ~ ~|~ ~ ~ ~|
 [B,,B,]6 z2 || B,2 F,2 D,2 F,2 | B,3 B, B,4 | B,2 [F,A,]2 [D,B,]2 [F,A,]2 | B,3 [F,A,] [F,A,]4 | %17
w: ~|~ ~ ~ ~|~ ~ ~|~ ~ ~ ~|~ ~ ~|
 [B,D]2 [F,C]2 [B,D]2 [F,C]2 | [B,D]2 [F,C]2 [D,B,]2 [B,,B,]2 | [F,E]7 [B,,D] | [B,,D]6 z2 |] %21
w: Hal- le- lu- jah,|Christ has ris- en|glo- ri-|ous.|
V:4
 F,2 | x6 F,2 | x8 | x8 | B,3 x5 | x8 | x8 | x8 | x8 | x8 | x8 | x8 | x8 || B,2 F,2 D,2 F,2 | %14
 B,3 B, B,4 | B,2 x6 | !>!B,3 x5 | x8 | x8 | x8 | x8 |] %21

